X:1
T:Title
%%score { ( 1 4 ) | ( 2 3 ) }
L:1/8
M:6/8
K:D
V:1 treble nm="Grand Piano"
V:4 treble 
V:2 bass 
V:3 bass 
V:1
 z3 z2[Q:1/4=100] [FA] | [FA]2 [FA] [DF]G[DFA] | [DGB]2 [DGB] [DFA]2 [A,DF] | %3
 [FA]2 [EG] [EG]F[A,CE] |[M:5/8] [A,DF]-[A,DF]- [A,DF]3 |[M:1/8] [DFA] | %6
[M:3/4] [DGB]2 [DGB][Bd] [Ac][GB] | [GB]2 [FA] [FA]2 F | E2 A B2 c | A3- [GA]3 | %10
 [FA]2- [DF-A-][DFA] FB | [FA]2- [DF-A-] [DFA]3 | [Gc]2- [EG-c-][EG-c] [GB]c | %13
[M:5/8] [Fd]-[Fd]- [Fd]3 |[M:1/8] [DFA] |[M:3/4] [DGB]2 [DGB][DBd] [DAc][DGB] | %16
 [DGB]2 [DFA] [DFA]2 [A,DF] | [A,FA] [A,FA]2 [A,EG]2[K:bass] [G,CE] |[M:5/8] [F,D]-[F,D]- [F,D]3 |] %19
V:2
 z3 z2 [D,D] | [D,D]2 [D,D] z ED, | G,2 G, D,2 D, | [A,,A,]2 [A,,A,] z DA,, |[M:5/8] D,-D,- D,3 | %5
[M:1/8] D, |[M:3/4] G,2 G, [G,D]2 [G,D] | [D,D]2 [D,D] [D,D]2 [D,A,D] | %8
 [E,A,C]2 [E,A,C] [E,^G,D]2 [E,G,E] | z2 z .E3 | D,2 .D,2[K:treble] DG | D,2 D, .D,3 | %12
 A,2 A,A,[K:treble] [A,E][A,EG] |[M:5/8][K:bass] [D,D]2 D, D,2 |[M:1/8] D, |[M:3/4] G,2 G,G, G,G, | %16
 D,2 D, D,2 D, | A,, A,,2 A,,2 A,, |[M:5/8] D,-D,- D,3 |] %19
V:3
 x6 | z3 .[D,A,]3 | x6 | z3 .[A,,A,]3 |[M:5/8] x5 |[M:1/8] x |[M:3/4] x6 | x6 | x6 | A,,6 | %10
 z2 z .D,3[K:treble] | x6 | x4[K:treble] x2 |[M:5/8][K:bass] x5 |[M:1/8] x |[M:3/4] x6 | x6 | x6 | %18
[M:5/8] x5 |] %19
V:4
 x6 | x6 | x6 | x6 |[M:5/8] x5 |[M:1/8] x |[M:3/4] x6 | x6 | x6 | [A,C]4 z2 | D2 z2 z2 | D2 z2 z2 | %12
 E2 z2 z2 |[M:5/8] z2 A, A,2 |[M:1/8] x |[M:3/4] x6 | x6 | x5[K:bass] x |[M:5/8] x5 |] %19

